!!!OTL: Ob ich gleich ein Schaefer bin
!!!OTL-incipit: Ob ich gleich ein Schaefer bin hab' ich immer frohen Sinn
!!!ARE: Europa, Mitteleuropa, Deutschland, Unterfranken, Wuerzburg
!!!SCT: D0288
!!!YEM: Copyright 1995, estate of Helmut Schaffrath.
**kern
*ICvox
*M3/4
*k[b-]
*F:
{8.f
16g
=1
4a
4a
8.g
16g
=2
4f
4r}
{8f
8a
=3
4.cc/
8a
8g
8g
=4
4f
4r}
{8cc/
8cc/
=5
8dd/
8cc/
8b-/
8a
8b-/
8b-/
=6
8b-/
8dd/
8cc/
8b-/
8a
8g
=7
8a
8g}
{8f
8f
8f
8a
=8
8g
8g
4f}
{8f
8a
=9
4.cc/
8a
8g
8g
=10
4f
4r}
==
!!!AGN: Hirten - Lied
!! Inzipit = Variante zum Lied
!!!ONB: ESAC (Essen Associative Code) Database: DVA
!!!AMT: simple triple
!!!AIN: vox
!!!EED: Helmut Schaffrath
!!!EEV: 1.0
!!!YOR: https://freidok.uni-freiburg.de/data/150373
!!!EFL: A218014
!!!ENC: Anna Maria Matuszewska
!!!EEV: 2025/06/04
*-
